X: 23227
T: Leary's Pound Note
R: polka
M: 2/4
K: Ddorian
|:A,D DE|FG A/B/A/G/|FD DF|E/F/E/D/ C/A,/G,|
A,D DE|FG A/B/A/G/|FD E/D/C|1 D2 D>C:|2 D2 D>G||
|:Ad de|fg/f/ ed|cA AB|cd/c/ Bd/B/|
Ad de|fg/f/ ed|cA GE|1 ED D>G:|2 ED D>C||

